X:1
T:Le rose fronde e fiori
T:Luca Marenzio
T:Source : Il primo libro delle Villanelle a tre voci---Venetia---G.Vincenzi---1586. Editor : André Vierendeels (10/05/17).
T:Notes : Original clefs : C1, C2, F4 Editorial accidentals above the staff "Terza impressione" 
T:Le rose fronde e fiori
T:©
T:©
C:Luca Marenzio
Z:©
%%score [ 1 2 3 ]
L:1/8
Q:1/4=120
M:4/4
K:F
V:1 treble nm="Soprano 1" snm="S 1"
V:2 treble nm="Soprano 2" snm="S 2"
V:3 bass nm="Bass" snm="B"
V:1
"^1)" z2 c2 c3 B | A2 A2 G4 | F2 f2 f3 _e | d2 d2 c4 |[M:2/4] B4 ::[M:4/4] d2 dd c3 c | %6
w: Le ro- se|fron- d'e fio-|ri, che mi por-|ge- sti'o Clo-|ri,|spi- ra- no cres- con|
w: L'o- dor di-|let- to por-|ge, l'ar- dir in|di ri- sor-|ge,|po- scia m'in- cen- de|
 B3 B A2 G2 | A4 A2 c2 | d4 c4 | B4 A2 d2- | dcBA G2 A2- | A2 G2 !fermata!A4 :| %12
w: man- dan' al mio|co- re, o-|dor ar-|dir ar- do-||* * re.|
w: l'a- mo- ro- sa|fiam- ma, es-|trag- ge'à|dram- m'à dram-||* * ma.|
V:2
"^2)""^1)" A4 A3 G | F2 F2 E4 | F2 A2 d3 c | B2 B2 A4 |[M:2/4] B4 ::[M:4/4] B2 BB A3 A | %6
w: Le ro- se|fron- d'e fio-|ri, che mi por-|ge- sti'o Clo-|ri,|spi- ra- no cres- con|
w: L'ar- dir, e|l'ar- dor mi-|o, na- sce da'un|bel de- si-|o,|che per voi bra- ma|
 G3 G ^F2 G2 | ^F4 F2 A2 | B4 A4 | G4 F2 B2- | BAGF E2 F2- | F2 E2 !fermata!F4 :| %12
w: man- dan' al mio|co- re, o-|dor ar-|dir ar- do-||* * re.|
w: piu sem- pre lan-|gui- re, che|d'al- tra'o-|gn' hor gio-|* * * * * i-|* * re.|
V:3
"^3)""^1)""^4)" F,4 F,3 _E, | D,2 F,2 C,4 | F,,2 F,2 B,,3 C, | D,2 B,,2 F,4 |[M:2/4] B,,4 :: %5
w: Le ro- se|fron- d'e fio-|ri, che mi por-|ge- st'io Clo-|ri,|
w: Dun- que bel-|la quer- rie-|ra, non mi sia-|te piu fie-|ra,|
[M:4/4] B,2 B,B, F,3 F, | G,3 G, D,2 _E,2 |"^-natural" D,4 D,2 F,2 | B,,C,D,E, F,2 F,,2 | %9
w: spi- ra- no cres- con|man dan' al mio|co- re, o-|dor _ _ _ _ ar-|
w: O mi spiac- ca'o m'in-|cres- ca'o'an- ci- da'il|co- re, l'o-|dor _ _ _ _ l'ar-|
 G,,A,,B,,C, D,4 | B,,4 C,4- | C,4 !fermata!F,,4 :| %12
w: dir _ _ _ _|ar- do-|* re.|
w: dir _ _ _ _|l'ar- do-|* re.|

